assets/arrow-left-fill.svg

<svg xmlns="http://www.w3.org/2000/svg" fill="none" viewBox="0 0 28 28">
  <mask id="a" fill="#fff">
    <path fill-rule="evenodd" d="M14 0C6.26801 0 0 6.26801 0 14c0 7.732 6.26801 14 14 14 7.732 0 14-6.268 14-14 0-7.73199-6.268-14-14-14ZM3.46967 14.5303l4.77297 4.773c.29289.2929.76777.2929 1.06066 0s.29289-.7678 0-1.0607L5.81066 14.75H24c.4142 0 .75-.3358.75-.75s-.3358-.75-.75-.75H5.81066L9.3033 9.75736c.29289-.29289.29289-.76777 0-1.06066s-.76777-.29289-1.06066 0l-4.77297 4.773c-.29289.2929-.29289.7677 0 1.0606Z" clip-rule="evenodd"/>
  </mask>
  <path fill="#2A2238" fill-rule="evenodd" d="M14 0C6.26801 0 0 6.26801 0 14c0 7.732 6.26801 14 14 14 7.732 0 14-6.268 14-14 0-7.73199-6.268-14-14-14ZM3.46967 14.5303l4.77297 4.773c.29289.2929.76777.2929 1.06066 0s.29289-.7678 0-1.0607L5.81066 14.75H24c.4142 0 .75-.3358.75-.75s-.3358-.75-.75-.75H5.81066L9.3033 9.75736c.29289-.29289.29289-.76777 0-1.06066s-.76777-.29289-1.06066 0l-4.77297 4.773c-.29289.2929-.29289.7677 0 1.0606Z" clip-rule="evenodd"/>
  <path fill="#2A2238" d="m8.24264 19.3033 1.06066-1.0607-1.06066 1.0607Zm1.06066-1.0607-1.06066 1.0607 1.06066-1.0607ZM5.81066 14.75v-1.5H2.18934L4.75 15.8107 5.81066 14.75Zm0-1.5L4.75 12.1893 2.18934 14.75h3.62132v-1.5ZM9.3033 9.75736 10.364 10.818 9.3033 9.75736ZM1.5 14C1.5 7.09644 7.09644 1.5 14 1.5v-3C5.43959-1.5-1.5 5.43959-1.5 14h3ZM14 26.5C7.09644 26.5 1.5 20.9036 1.5 14h-3c0 8.5604 6.93959 15.5 15.5 15.5v-3ZM26.5 14c0 6.9036-5.5964 12.5-12.5 12.5v3c8.5604 0 15.5-6.9396 15.5-15.5h-3ZM14 1.5c6.9036 0 12.5 5.59644 12.5 12.5h3c0-8.56041-6.9396-15.5-15.5-15.5v3ZM9.3033 18.2426l-4.77297-4.7729-2.12132 2.1213 4.77297 4.773 2.12132-2.1214Zm-1.06066 0c.29289-.2929.76777-.2929 1.06066 0L7.18198 20.364c.87868.8786 2.3033.8786 3.18202 0l-2.12136-2.1214Zm0 1.0607c-.29289-.2929-.29289-.7678 0-1.0607L10.364 20.364c.8786-.8787.8786-2.3033 0-3.182l-2.12136 2.1213ZM4.75 15.8107l3.49264 3.4926L10.364 17.182l-3.49268-3.4927L4.75 15.8107ZM24 13.25H5.81066v3H24v-3Zm-.75.75c0-.4142.3358-.75.75-.75v3c1.2426 0 2.25-1.0074 2.25-2.25h-3Zm.75.75c-.4142 0-.75-.3358-.75-.75h3c0-1.2426-1.0074-2.25-2.25-2.25v3Zm-18.18934 0H24v-3H5.81066v3Zm2.43198-6.0533L4.75 12.1893l2.12132 2.1214L10.364 10.818 8.24264 8.6967Zm0 1.06066c-.29289-.29289-.29289-.76777 0-1.06066L10.364 10.818c.8786-.87866.8786-2.30328 0-3.18196L8.24264 9.75736Zm1.06066 0c-.29289.29294-.76777.29294-1.06066 0L10.364 7.63604c-.87872-.87868-2.30334-.87868-3.18202 0L9.3033 9.75736ZM4.53033 14.5303 9.3033 9.75736 7.18198 7.63604 2.40901 12.409l2.12132 2.1213Zm0-1.0606c.29289.2929.29289.7677 0 1.0606L2.40901 12.409c-.87868.8787-.87868 2.3033 0 3.182l2.12132-2.1213Z" mask="url(#a)"/>
</svg>

<svg width="28" height="28" viewBox="0 0 28 28" fill="none" xmlns="http://www.w3.org/2000/svg">
<mask id="path-1-inside-1_11_248" fill="white">
<path fill-rule="evenodd" clip-rule="evenodd" d="M14 0C6.26801 0 0 6.26801 0 14C0 21.732 6.26801 28 14 28C21.732 28 28 21.732 28 14C28 6.26801 21.732 0 14 0ZM3.46967 14.5303L8.24264 19.3033C8.53553 19.5962 9.01041 19.5962 9.3033 19.3033C9.59619 19.0104 9.59619 18.5355 9.3033 18.2426L5.81066 14.75H24C24.4142 14.75 24.75 14.4142 24.75 14C24.75 13.5858 24.4142 13.25 24 13.25H5.81066L9.3033 9.75736C9.59619 9.46447 9.59619 8.98959 9.3033 8.6967C9.01041 8.40381 8.53553 8.40381 8.24264 8.6967L3.46967 13.4697C3.17678 13.7626 3.17678 14.2374 3.46967 14.5303Z"/>
</mask>
<path fill-rule="evenodd" clip-rule="evenodd" d="M14 0C6.26801 0 0 6.26801 0 14C0 21.732 6.26801 28 14 28C21.732 28 28 21.732 28 14C28 6.26801 21.732 0 14 0ZM3.46967 14.5303L8.24264 19.3033C8.53553 19.5962 9.01041 19.5962 9.3033 19.3033C9.59619 19.0104 9.59619 18.5355 9.3033 18.2426L5.81066 14.75H24C24.4142 14.75 24.75 14.4142 24.75 14C24.75 13.5858 24.4142 13.25 24 13.25H5.81066L9.3033 9.75736C9.59619 9.46447 9.59619 8.98959 9.3033 8.6967C9.01041 8.40381 8.53553 8.40381 8.24264 8.6967L3.46967 13.4697C3.17678 13.7626 3.17678 14.2374 3.46967 14.5303Z" fill="#2A2238"/>
<path d="M8.24264 19.3033L9.3033 18.2426L9.3033 18.2426L8.24264 19.3033ZM9.3033 18.2426L8.24264 19.3033L8.24264 19.3033L9.3033 18.2426ZM5.81066 14.75V13.25H2.18934L4.75 15.8107L5.81066 14.75ZM5.81066 13.25L4.75 12.1893L2.18934 14.75H5.81066V13.25ZM9.3033 9.75736L10.364 10.818L10.364 10.818L9.3033 9.75736ZM1.5 14C1.5 7.09644 7.09644 1.5 14 1.5V-1.5C5.43959 -1.5 -1.5 5.43959 -1.5 14H1.5ZM14 26.5C7.09644 26.5 1.5 20.9036 1.5 14H-1.5C-1.5 22.5604 5.43959 29.5 14 29.5V26.5ZM26.5 14C26.5 20.9036 20.9036 26.5 14 26.5V29.5C22.5604 29.5 29.5 22.5604 29.5 14H26.5ZM14 1.5C20.9036 1.5 26.5 7.09644 26.5 14H29.5C29.5 5.43959 22.5604 -1.5 14 -1.5V1.5ZM9.3033 18.2426L4.53033 13.4697L2.40901 15.591L7.18198 20.364L9.3033 18.2426ZM8.24264 18.2426C8.53553 17.9497 9.01041 17.9497 9.3033 18.2426L7.18198 20.364C8.06066 21.2426 9.48528 21.2426 10.364 20.364L8.24264 18.2426ZM8.24264 19.3033C7.94975 19.0104 7.94975 18.5355 8.24264 18.2426L10.364 20.364C11.2426 19.4853 11.2426 18.0607 10.364 17.182L8.24264 19.3033ZM4.75 15.8107L8.24264 19.3033L10.364 17.182L6.87132 13.6893L4.75 15.8107ZM24 13.25H5.81066V16.25H24V13.25ZM23.25 14C23.25 13.5858 23.5858 13.25 24 13.25V16.25C25.2426 16.25 26.25 15.2426 26.25 14H23.25ZM24 14.75C23.5858 14.75 23.25 14.4142 23.25 14H26.25C26.25 12.7574 25.2426 11.75 24 11.75V14.75ZM5.81066 14.75H24V11.75H5.81066V14.75ZM8.24264 8.6967L4.75 12.1893L6.87132 14.3107L10.364 10.818L8.24264 8.6967ZM8.24264 9.75736C7.94975 9.46447 7.94975 8.98959 8.24264 8.6967L10.364 10.818C11.2426 9.93934 11.2426 8.51472 10.364 7.63604L8.24264 9.75736ZM9.3033 9.75736C9.01041 10.0503 8.53553 10.0503 8.24264 9.75736L10.364 7.63604C9.48528 6.75736 8.06066 6.75736 7.18198 7.63604L9.3033 9.75736ZM4.53033 14.5303L9.3033 9.75736L7.18198 7.63604L2.40901 12.409L4.53033 14.5303ZM4.53033 13.4697C4.82322 13.7626 4.82322 14.2374 4.53033 14.5303L2.40901 12.409C1.53033 13.2877 1.53033 14.7123 2.40901 15.591L4.53033 13.4697Z" fill="#2A2238" mask="url(#path-1-inside-1_11_248)"/>
</svg>
